src/data/articles/compile-time-data-contracts-scala-3/images/13-mirror-shape-derivation.svg

<svg xmlns="http://www.w3.org/2000/svg" id="my-svg" width="100%" aria-roledescription="flowchart-v2" class="flowchart" style="font-family:arial,helvetica,sans-serif;font-size:16px;fill:#000;max-width:1162.47px;background-color:#fff" viewBox="0 0 1162.469 174"><style>@keyframes edge-animation-frame{0%{stroke-dashoffset:0}}@keyframes dash{to{stroke-dashoffset:0}}#my-svg .edge-thickness-normal{stroke-width:1px}#my-svg .edge-pattern-solid{stroke-dasharray:0}#my-svg .marker{fill:#06c;stroke:#06c}#my-svg .marker.cross{stroke:#06c}#my-svg .label,#my-svg svg{font-family:arial,helvetica,sans-serif}#my-svg svg{font-size:16px}#my-svg p{margin:0}#my-svg .label{color:#000}#my-svg span{fill:#000;color:#000}#my-svg .node circle,#my-svg .node path,#my-svg .node rect{fill:#fff;stroke:#06c;stroke-width:1px}#my-svg .flowchart-link{stroke:#06c;fill:none}#my-svg .edgeLabel,#my-svg .node .label{text-align:center}#my-svg .edgeLabel,#my-svg .edgeLabel p{background-color:#fff}#my-svg .edgeLabel rect{opacity:.5;background-color:#fff;fill:#fff}#my-svg .labelBkg{background-color:rgba(255,255,255,.5)}#my-svg :root{--mermaid-font-family:&quot;trebuchet ms&quot;,verdana,arial,sans-serif}</style><marker id="my-svg_flowchart-v2-pointEnd" class="marker flowchart-v2" markerHeight="8" markerUnits="userSpaceOnUse" markerWidth="8" orient="auto" refX="5" refY="5" viewBox="0 0 10 10"><path d="m0 0 10 5-10 5z" class="arrowMarkerPath" style="stroke-width:1;stroke-dasharray:1,0"/></marker><marker id="my-svg_flowchart-v2-pointStart" class="marker flowchart-v2" markerHeight="8" markerUnits="userSpaceOnUse" markerWidth="8" orient="auto" refX="4.5" refY="5" viewBox="0 0 10 10"><path d="m0 5 10 5V0z" class="arrowMarkerPath" style="stroke-width:1;stroke-dasharray:1,0"/></marker><marker id="my-svg_flowchart-v2-circleEnd" class="marker flowchart-v2" markerHeight="11" markerUnits="userSpaceOnUse" markerWidth="11" orient="auto" refX="11" refY="5" viewBox="0 0 10 10"><circle cx="5" cy="5" r="5" class="arrowMarkerPath" style="stroke-width:1;stroke-dasharray:1,0"/></marker><marker id="my-svg_flowchart-v2-circleStart" class="marker flowchart-v2" markerHeight="11" markerUnits="userSpaceOnUse" markerWidth="11" orient="auto" refX="-1" refY="5" viewBox="0 0 10 10"><circle cx="5" cy="5" r="5" class="arrowMarkerPath" style="stroke-width:1;stroke-dasharray:1,0"/></marker><marker id="my-svg_flowchart-v2-crossEnd" class="marker cross flowchart-v2" markerHeight="11" markerUnits="userSpaceOnUse" markerWidth="11" orient="auto" refX="12" refY="5.2" viewBox="0 0 11 11"><path d="m1 1 9 9m0-9-9 9" class="arrowMarkerPath" style="stroke-width:2;stroke-dasharray:1,0"/></marker><marker id="my-svg_flowchart-v2-crossStart" class="marker cross flowchart-v2" markerHeight="11" markerUnits="userSpaceOnUse" markerWidth="11" orient="auto" refX="-1" refY="5.2" viewBox="0 0 11 11"><path d="m1 1 9 9m0-9-9 9" class="arrowMarkerPath" style="stroke-width:2;stroke-dasharray:1,0"/></marker><g class="root"><g class="edgePaths"><path id="L_A_M_0" marker-end="url(#my-svg_flowchart-v2-pointEnd)" d="M184.484 87h46" class="edge-thickness-normal edge-pattern-solid edge-thickness-normal edge-pattern-solid flowchart-link" data-edge="true" data-et="edge" data-id="L_A_M_0" data-points="W3sieCI6MTg0LjQ4NDM3NSwieSI6ODd9LHsieCI6MjA5LjQ4NDM3NSwieSI6ODd9LHsieCI6MjM0LjQ4NDM3NSwieSI6ODd9XQ=="/><path id="L_M_L_0" marker-end="url(#my-svg_flowchart-v2-pointEnd)" d="m355.164 60 7.684-4.167c7.683-4.166 23.051-12.5 34.234-16.666S415.266 35 418.766 35h3.5" class="edge-thickness-normal edge-pattern-solid edge-thickness-normal edge-pattern-solid flowchart-link" data-edge="true" data-et="edge" data-id="L_M_L_0" data-points="W3sieCI6MzU1LjE2NDM2Mjk4MDc2OTIsInkiOjYwfSx7IngiOjQwMS4yNjU2MjUsInkiOjM1fSx7IngiOjQyNi4yNjU2MjUsInkiOjM1fV0="/><path id="L_M_T_0" marker-end="url(#my-svg_flowchart-v2-pointEnd)" d="m355.164 114 7.684 4.167c7.683 4.166 23.051 12.5 34.606 16.666S416.755 139 420.628 139h3.872" class="edge-thickness-normal edge-pattern-solid edge-thickness-normal edge-pattern-solid flowchart-link" data-edge="true" data-et="edge" data-id="L_M_T_0" data-points="W3sieCI6MzU1LjE2NDM2Mjk4MDc2OTIsInkiOjExNH0seyJ4Ijo0MDEuMjY1NjI1LCJ5IjoxMzl9LHsieCI6NDI4LjUsInkiOjEzOX1d"/><path id="L_L_Z_0" marker-end="url(#my-svg_flowchart-v2-pointEnd)" d="M629.438 35h4.166c4.167 0 12.5 0 25.276 3.892s29.994 11.676 38.603 15.568l8.609 3.892" class="edge-thickness-normal edge-pattern-solid edge-thickness-normal edge-pattern-solid flowchart-link" data-edge="true" data-et="edge" data-id="L_L_Z_0" data-points="W3sieCI6NjI5LjQzNzUsInkiOjM1fSx7IngiOjY1NC40Mzc1LCJ5IjozNX0seyJ4Ijo3MDkuNzM3MjI5NTY3MzA3NywieSI6NjB9XQ=="/><path id="L_T_Z_0" marker-end="url(#my-svg_flowchart-v2-pointEnd)" d="M627.203 139h4.539c4.539 0 13.617 0 26.766-3.892s30.366-11.676 38.975-15.568l8.609-3.892" class="edge-thickness-normal edge-pattern-solid edge-thickness-normal edge-pattern-solid flowchart-link" data-edge="true" data-et="edge" data-id="L_T_Z_0" data-points="W3sieCI6NjI3LjIwMzEyNSwieSI6MTM5fSx7IngiOjY1NC40Mzc1LCJ5IjoxMzl9LHsieCI6NzA5LjczNzIyOTU2NzMwNzcsInkiOjExNH1d"/><path id="L_Z_S_0" marker-end="url(#my-svg_flowchart-v2-pointEnd)" d="M859.484 87h46" class="edge-thickness-normal edge-pattern-solid edge-thickness-normal edge-pattern-solid flowchart-link" data-edge="true" data-et="edge" data-id="L_Z_S_0" data-points="W3sieCI6ODU5LjQ4NDM3NSwieSI6ODd9LHsieCI6ODg0LjQ4NDM3NSwieSI6ODd9LHsieCI6OTA5LjQ4NDM3NSwieSI6ODd9XQ=="/></g><g class="edgeLabels"><g class="edgeLabel"><foreignObject width="0" height="0" class="label" data-id="L_A_M_0"><div xmlns="http://www.w3.org/1999/xhtml" class="labelBkg" style="display:table-cell;white-space:nowrap;line-height:1.5;max-width:200px;text-align:center"><span class="edgeLabel"/></div></foreignObject></g><g class="edgeLabel"><foreignObject width="0" height="0" class="label" data-id="L_M_L_0"><div xmlns="http://www.w3.org/1999/xhtml" class="labelBkg" style="display:table-cell;white-space:nowrap;line-height:1.5;max-width:200px;text-align:center"><span class="edgeLabel"/></div></foreignObject></g><g class="edgeLabel"><foreignObject width="0" height="0" class="label" data-id="L_M_T_0"><div xmlns="http://www.w3.org/1999/xhtml" class="labelBkg" style="display:table-cell;white-space:nowrap;line-height:1.5;max-width:200px;text-align:center"><span class="edgeLabel"/></div></foreignObject></g><g class="edgeLabel"><foreignObject width="0" height="0" class="label" data-id="L_L_Z_0"><div xmlns="http://www.w3.org/1999/xhtml" class="labelBkg" style="display:table-cell;white-space:nowrap;line-height:1.5;max-width:200px;text-align:center"><span class="edgeLabel"/></div></foreignObject></g><g class="edgeLabel"><foreignObject width="0" height="0" class="label" data-id="L_T_Z_0"><div xmlns="http://www.w3.org/1999/xhtml" class="labelBkg" style="display:table-cell;white-space:nowrap;line-height:1.5;max-width:200px;text-align:center"><span class="edgeLabel"/></div></foreignObject></g><g class="edgeLabel"><foreignObject width="0" height="0" class="label" data-id="L_Z_S_0"><div xmlns="http://www.w3.org/1999/xhtml" class="labelBkg" style="display:table-cell;white-space:nowrap;line-height:1.5;max-width:200px;text-align:center"><span class="edgeLabel"/></div></foreignObject></g></g><g class="nodes"><g id="flowchart-A-0" class="node default"><path d="M8 60h176.484v54H8z" class="basic label-container"/><g class="label" transform="translate(38 75)"><rect/><foreignObject width="116.484" height="24"><div xmlns="http://www.w3.org/1999/xhtml" style="display:table-cell;white-space:nowrap;line-height:1.5;max-width:200px;text-align:center"><span class="nodeLabel"><p>Case class A(...)</p></span></div></foreignObject></g></g><g id="flowchart-M-1" class="node default"><path d="M234.484 60h141.781v54H234.484z" class="basic label-container"/><g class="label" transform="translate(264.484 75)"><rect/><foreignObject width="81.781" height="24"><div xmlns="http://www.w3.org/1999/xhtml" style="display:table-cell;white-space:nowrap;line-height:1.5;max-width:200px;text-align:center"><span class="nodeLabel"><p>Mirror.Of[A]</p></span></div></foreignObject></g></g><g id="flowchart-L-3" class="node default"><path d="M426.266 8h203.172v54H426.266z" class="basic label-container"/><g class="label" transform="translate(456.266 23)"><rect/><foreignObject width="143.172" height="24"><div xmlns="http://www.w3.org/1999/xhtml" style="display:table-cell;white-space:nowrap;line-height:1.5;max-width:200px;text-align:center"><span class="nodeLabel"><p>MirroredElemLabels</p></span></div></foreignObject></g></g><g id="flowchart-T-5" class="node default"><path d="M428.5 112h198.703v54H428.5z" class="basic label-container"/><g class="label" transform="translate(458.5 127)"><rect/><foreignObject width="138.703" height="24"><div xmlns="http://www.w3.org/1999/xhtml" style="display:table-cell;white-space:nowrap;line-height:1.5;max-width:200px;text-align:center"><span class="nodeLabel"><p>MirroredElemTypes</p></span></div></foreignObject></g></g><g id="flowchart-Z-7" class="node default"><path d="M679.438 60h180.047v54H679.438z" class="basic label-container"/><g class="label" transform="translate(709.438 75)"><rect/><foreignObject width="120.047" height="24"><div xmlns="http://www.w3.org/1999/xhtml" style="display:table-cell;white-space:nowrap;line-height:1.5;max-width:200px;text-align:center"><span class="nodeLabel"><p>zip(labels, types)</p></span></div></foreignObject></g></g><g id="flowchart-S-11" class="node default"><path d="M909.485 60h244.984v54H909.485z" class="basic label-container"/><g class="label" transform="translate(939.484 75)"><rect/><foreignObject width="184.984" height="24"><div xmlns="http://www.w3.org/1999/xhtml" style="display:table-cell;white-space:nowrap;line-height:1.5;max-width:200px;text-align:center"><span class="nodeLabel"><p>Shape[A].fields: List[Field]</p></span></div></foreignObject></g></g></g></g></svg>

<svg id="my-svg" width="100%" xmlns="http://www.w3.org/2000/svg" xmlns:xlink="http://www.w3.org/1999/xlink" class="flowchart" style="max-width: 1162.47px; background-color: white;" viewBox="0 0 1162.46875 174" role="graphics-document document" aria-roledescription="flowchart-v2"><style>#my-svg{font-family:arial,helvetica,sans-serif;font-size:16px;fill:#000;}@keyframes edge-animation-frame{from{stroke-dashoffset:0;}}@keyframes dash{to{stroke-dashoffset:0;}}#my-svg .edge-animation-slow{stroke-dasharray:9,5!important;stroke-dashoffset:900;animation:dash 50s linear infinite;stroke-linecap:round;}#my-svg .edge-animation-fast{stroke-dasharray:9,5!important;stroke-dashoffset:900;animation:dash 20s linear infinite;stroke-linecap:round;}#my-svg .error-icon{fill:#fff4e1;}#my-svg .error-text{fill:#000b1e;stroke:#000b1e;}#my-svg .edge-thickness-normal{stroke-width:1px;}#my-svg .edge-thickness-thick{stroke-width:3.5px;}#my-svg .edge-pattern-solid{stroke-dasharray:0;}#my-svg .edge-thickness-invisible{stroke-width:0;fill:none;}#my-svg .edge-pattern-dashed{stroke-dasharray:3;}#my-svg .edge-pattern-dotted{stroke-dasharray:2;}#my-svg .marker{fill:#0066cc;stroke:#0066cc;}#my-svg .marker.cross{stroke:#0066cc;}#my-svg svg{font-family:arial,helvetica,sans-serif;font-size:16px;}#my-svg p{margin:0;}#my-svg .label{font-family:arial,helvetica,sans-serif;color:#000;}#my-svg .cluster-label text{fill:#000b1e;}#my-svg .cluster-label span{color:#000b1e;}#my-svg .cluster-label span p{background-color:transparent;}#my-svg .label text,#my-svg span{fill:#000;color:#000;}#my-svg .node rect,#my-svg .node circle,#my-svg .node ellipse,#my-svg .node polygon,#my-svg .node path{fill:#ffffff;stroke:#0066cc;stroke-width:1px;}#my-svg .rough-node .label text,#my-svg .node .label text,#my-svg .image-shape .label,#my-svg .icon-shape .label{text-anchor:middle;}#my-svg .node .katex path{fill:#000;stroke:#000;stroke-width:1px;}#my-svg .rough-node .label,#my-svg .node .label,#my-svg .image-shape .label,#my-svg .icon-shape .label{text-align:center;}#my-svg .node.clickable{cursor:pointer;}#my-svg .root .anchor path{fill:#0066cc!important;stroke-width:0;stroke:#0066cc;}#my-svg .arrowheadPath{fill:#000000;}#my-svg .edgePath .path{stroke:#0066cc;stroke-width:2.0px;}#my-svg .flowchart-link{stroke:#0066cc;fill:none;}#my-svg .edgeLabel{background-color:#ffffff;text-align:center;}#my-svg .edgeLabel p{background-color:#ffffff;}#my-svg .edgeLabel rect{opacity:0.5;background-color:#ffffff;fill:#ffffff;}#my-svg .labelBkg{background-color:rgba(255, 255, 255, 0.5);}#my-svg .cluster rect{fill:#fff4e1;stroke:hsl(38, 60%, 84.1176470588%);stroke-width:1px;}#my-svg .cluster text{fill:#000b1e;}#my-svg .cluster span{color:#000b1e;}#my-svg div.mermaidTooltip{position:absolute;text-align:center;max-width:200px;padding:2px;font-family:arial,helvetica,sans-serif;font-size:12px;background:#fff4e1;border:1px solid hsl(38, 60%, 84.1176470588%);border-radius:2px;pointer-events:none;z-index:100;}#my-svg .flowchartTitleText{text-anchor:middle;font-size:18px;fill:#000;}#my-svg rect.text{fill:none;stroke-width:0;}#my-svg .icon-shape,#my-svg .image-shape{background-color:#ffffff;text-align:center;}#my-svg .icon-shape p,#my-svg .image-shape p{background-color:#ffffff;padding:2px;}#my-svg .icon-shape rect,#my-svg .image-shape rect{opacity:0.5;background-color:#ffffff;fill:#ffffff;}#my-svg .label-icon{display:inline-block;height:1em;overflow:visible;vertical-align:-0.125em;}#my-svg .node .label-icon path{fill:currentColor;stroke:revert;stroke-width:revert;}#my-svg :root{--mermaid-font-family:"trebuchet ms",verdana,arial,sans-serif;}</style><g><marker id="my-svg_flowchart-v2-pointEnd" class="marker flowchart-v2" viewBox="0 0 10 10" refX="5" refY="5" markerUnits="userSpaceOnUse" markerWidth="8" markerHeight="8" orient="auto"><path d="M 0 0 L 10 5 L 0 10 z" class="arrowMarkerPath" style="stroke-width: 1; stroke-dasharray: 1, 0;"/></marker><marker id="my-svg_flowchart-v2-pointStart" class="marker flowchart-v2" viewBox="0 0 10 10" refX="4.5" refY="5" markerUnits="userSpaceOnUse" markerWidth="8" markerHeight="8" orient="auto"><path d="M 0 5 L 10 10 L 10 0 z" class="arrowMarkerPath" style="stroke-width: 1; stroke-dasharray: 1, 0;"/></marker><marker id="my-svg_flowchart-v2-circleEnd" class="marker flowchart-v2" viewBox="0 0 10 10" refX="11" refY="5" markerUnits="userSpaceOnUse" markerWidth="11" markerHeight="11" orient="auto"><circle cx="5" cy="5" r="5" class="arrowMarkerPath" style="stroke-width: 1; stroke-dasharray: 1, 0;"/></marker><marker id="my-svg_flowchart-v2-circleStart" class="marker flowchart-v2" viewBox="0 0 10 10" refX="-1" refY="5" markerUnits="userSpaceOnUse" markerWidth="11" markerHeight="11" orient="auto"><circle cx="5" cy="5" r="5" class="arrowMarkerPath" style="stroke-width: 1; stroke-dasharray: 1, 0;"/></marker><marker id="my-svg_flowchart-v2-crossEnd" class="marker cross flowchart-v2" viewBox="0 0 11 11" refX="12" refY="5.2" markerUnits="userSpaceOnUse" markerWidth="11" markerHeight="11" orient="auto"><path d="M 1,1 l 9,9 M 10,1 l -9,9" class="arrowMarkerPath" style="stroke-width: 2; stroke-dasharray: 1, 0;"/></marker><marker id="my-svg_flowchart-v2-crossStart" class="marker cross flowchart-v2" viewBox="0 0 11 11" refX="-1" refY="5.2" markerUnits="userSpaceOnUse" markerWidth="11" markerHeight="11" orient="auto"><path d="M 1,1 l 9,9 M 10,1 l -9,9" class="arrowMarkerPath" style="stroke-width: 2; stroke-dasharray: 1, 0;"/></marker><g class="root"><g class="clusters"/><g class="edgePaths"><path d="M184.484,87L188.651,87C192.818,87,201.151,87,208.818,87C216.484,87,223.484,87,226.984,87L230.484,87" id="L_A_M_0" class="edge-thickness-normal edge-pattern-solid edge-thickness-normal edge-pattern-solid flowchart-link" style=";" data-edge="true" data-et="edge" data-id="L_A_M_0" data-points="W3sieCI6MTg0LjQ4NDM3NSwieSI6ODd9LHsieCI6MjA5LjQ4NDM3NSwieSI6ODd9LHsieCI6MjM0LjQ4NDM3NSwieSI6ODd9XQ==" marker-end="url(#my-svg_flowchart-v2-pointEnd)"/><path d="M355.164,60L362.848,55.833C370.531,51.667,385.899,43.333,397.082,39.167C408.266,35,415.266,35,418.766,35L422.266,35" id="L_M_L_0" class="edge-thickness-normal edge-pattern-solid edge-thickness-normal edge-pattern-solid flowchart-link" style=";" data-edge="true" data-et="edge" data-id="L_M_L_0" data-points="W3sieCI6MzU1LjE2NDM2Mjk4MDc2OTIsInkiOjYwfSx7IngiOjQwMS4yNjU2MjUsInkiOjM1fSx7IngiOjQyNi4yNjU2MjUsInkiOjM1fV0=" marker-end="url(#my-svg_flowchart-v2-pointEnd)"/><path d="M355.164,114L362.848,118.167C370.531,122.333,385.899,130.667,397.454,134.833C409.01,139,416.755,139,420.628,139L424.5,139" id="L_M_T_0" class="edge-thickness-normal edge-pattern-solid edge-thickness-normal edge-pattern-solid flowchart-link" style=";" data-edge="true" data-et="edge" data-id="L_M_T_0" data-points="W3sieCI6MzU1LjE2NDM2Mjk4MDc2OTIsInkiOjExNH0seyJ4Ijo0MDEuMjY1NjI1LCJ5IjoxMzl9LHsieCI6NDI4LjUsInkiOjEzOX1d" marker-end="url(#my-svg_flowchart-v2-pointEnd)"/><path d="M629.438,35L633.604,35C637.771,35,646.104,35,658.88,38.892C671.656,42.784,688.874,50.568,697.483,54.46L706.092,58.352" id="L_L_Z_0" class="edge-thickness-normal edge-pattern-solid edge-thickness-normal edge-pattern-solid flowchart-link" style=";" data-edge="true" data-et="edge" data-id="L_L_Z_0" data-points="W3sieCI6NjI5LjQzNzUsInkiOjM1fSx7IngiOjY1NC40Mzc1LCJ5IjozNX0seyJ4Ijo3MDkuNzM3MjI5NTY3MzA3NywieSI6NjB9XQ==" marker-end="url(#my-svg_flowchart-v2-pointEnd)"/><path d="M627.203,139L631.742,139C636.281,139,645.359,139,658.508,135.108C671.656,131.216,688.874,123.432,697.483,119.54L706.092,115.648" id="L_T_Z_0" class="edge-thickness-normal edge-pattern-solid edge-thickness-normal edge-pattern-solid flowchart-link" style=";" data-edge="true" data-et="edge" data-id="L_T_Z_0" data-points="W3sieCI6NjI3LjIwMzEyNSwieSI6MTM5fSx7IngiOjY1NC40Mzc1LCJ5IjoxMzl9LHsieCI6NzA5LjczNzIyOTU2NzMwNzcsInkiOjExNH1d" marker-end="url(#my-svg_flowchart-v2-pointEnd)"/><path d="M859.484,87L863.651,87C867.818,87,876.151,87,883.818,87C891.484,87,898.484,87,901.984,87L905.484,87" id="L_Z_S_0" class="edge-thickness-normal edge-pattern-solid edge-thickness-normal edge-pattern-solid flowchart-link" style=";" data-edge="true" data-et="edge" data-id="L_Z_S_0" data-points="W3sieCI6ODU5LjQ4NDM3NSwieSI6ODd9LHsieCI6ODg0LjQ4NDM3NSwieSI6ODd9LHsieCI6OTA5LjQ4NDM3NSwieSI6ODd9XQ==" marker-end="url(#my-svg_flowchart-v2-pointEnd)"/></g><g class="edgeLabels"><g class="edgeLabel"><g class="label" data-id="L_A_M_0" transform="translate(0, 0)"><foreignObject width="0" height="0"><div xmlns="http://www.w3.org/1999/xhtml" class="labelBkg" style="display: table-cell; white-space: nowrap; line-height: 1.5; max-width: 200px; text-align: center;"><span class="edgeLabel"></span></div></foreignObject></g></g><g class="edgeLabel"><g class="label" data-id="L_M_L_0" transform="translate(0, 0)"><foreignObject width="0" height="0"><div xmlns="http://www.w3.org/1999/xhtml" class="labelBkg" style="display: table-cell; white-space: nowrap; line-height: 1.5; max-width: 200px; text-align: center;"><span class="edgeLabel"></span></div></foreignObject></g></g><g class="edgeLabel"><g class="label" data-id="L_M_T_0" transform="translate(0, 0)"><foreignObject width="0" height="0"><div xmlns="http://www.w3.org/1999/xhtml" class="labelBkg" style="display: table-cell; white-space: nowrap; line-height: 1.5; max-width: 200px; text-align: center;"><span class="edgeLabel"></span></div></foreignObject></g></g><g class="edgeLabel"><g class="label" data-id="L_L_Z_0" transform="translate(0, 0)"><foreignObject width="0" height="0"><div xmlns="http://www.w3.org/1999/xhtml" class="labelBkg" style="display: table-cell; white-space: nowrap; line-height: 1.5; max-width: 200px; text-align: center;"><span class="edgeLabel"></span></div></foreignObject></g></g><g class="edgeLabel"><g class="label" data-id="L_T_Z_0" transform="translate(0, 0)"><foreignObject width="0" height="0"><div xmlns="http://www.w3.org/1999/xhtml" class="labelBkg" style="display: table-cell; white-space: nowrap; line-height: 1.5; max-width: 200px; text-align: center;"><span class="edgeLabel"></span></div></foreignObject></g></g><g class="edgeLabel"><g class="label" data-id="L_Z_S_0" transform="translate(0, 0)"><foreignObject width="0" height="0"><div xmlns="http://www.w3.org/1999/xhtml" class="labelBkg" style="display: table-cell; white-space: nowrap; line-height: 1.5; max-width: 200px; text-align: center;"><span class="edgeLabel"></span></div></foreignObject></g></g></g><g class="nodes"><g class="node default" id="flowchart-A-0" transform="translate(96.2421875, 87)"><rect class="basic label-container" style="" x="-88.2421875" y="-27" width="176.484375" height="54"/><g class="label" style="" transform="translate(-58.2421875, -12)"><rect/><foreignObject width="116.484375" height="24"><div xmlns="http://www.w3.org/1999/xhtml" style="display: table-cell; white-space: nowrap; line-height: 1.5; max-width: 200px; text-align: center;"><span class="nodeLabel"><p>Case class A(...)</p></span></div></foreignObject></g></g><g class="node default" id="flowchart-M-1" transform="translate(305.375, 87)"><rect class="basic label-container" style="" x="-70.890625" y="-27" width="141.78125" height="54"/><g class="label" style="" transform="translate(-40.890625, -12)"><rect/><foreignObject width="81.78125" height="24"><div xmlns="http://www.w3.org/1999/xhtml" style="display: table-cell; white-space: nowrap; line-height: 1.5; max-width: 200px; text-align: center;"><span class="nodeLabel"><p>Mirror.Of[A]</p></span></div></foreignObject></g></g><g class="node default" id="flowchart-L-3" transform="translate(527.8515625, 35)"><rect class="basic label-container" style="" x="-101.5859375" y="-27" width="203.171875" height="54"/><g class="label" style="" transform="translate(-71.5859375, -12)"><rect/><foreignObject width="143.171875" height="24"><div xmlns="http://www.w3.org/1999/xhtml" style="display: table-cell; white-space: nowrap; line-height: 1.5; max-width: 200px; text-align: center;"><span class="nodeLabel"><p>MirroredElemLabels</p></span></div></foreignObject></g></g><g class="node default" id="flowchart-T-5" transform="translate(527.8515625, 139)"><rect class="basic label-container" style="" x="-99.3515625" y="-27" width="198.703125" height="54"/><g class="label" style="" transform="translate(-69.3515625, -12)"><rect/><foreignObject width="138.703125" height="24"><div xmlns="http://www.w3.org/1999/xhtml" style="display: table-cell; white-space: nowrap; line-height: 1.5; max-width: 200px; text-align: center;"><span class="nodeLabel"><p>MirroredElemTypes</p></span></div></foreignObject></g></g><g class="node default" id="flowchart-Z-7" transform="translate(769.4609375, 87)"><rect class="basic label-container" style="" x="-90.0234375" y="-27" width="180.046875" height="54"/><g class="label" style="" transform="translate(-60.0234375, -12)"><rect/><foreignObject width="120.046875" height="24"><div xmlns="http://www.w3.org/1999/xhtml" style="display: table-cell; white-space: nowrap; line-height: 1.5; max-width: 200px; text-align: center;"><span class="nodeLabel"><p>zip(labels, types)</p></span></div></foreignObject></g></g><g class="node default" id="flowchart-S-11" transform="translate(1031.9765625, 87)"><rect class="basic label-container" style="" x="-122.4921875" y="-27" width="244.984375" height="54"/><g class="label" style="" transform="translate(-92.4921875, -12)"><rect/><foreignObject width="184.984375" height="24"><div xmlns="http://www.w3.org/1999/xhtml" style="display: table-cell; white-space: nowrap; line-height: 1.5; max-width: 200px; text-align: center;"><span class="nodeLabel"><p>Shape[A].fields: List[Field]</p></span></div></foreignObject></g></g></g></g></g></svg>
